X:1
T:Solemnity, LM
T:Solemnity, LM
T:Ananias Davisson (1780-1857) 
T:Public Domain Courtesy of the Cyber Hymnal™
C:Ananias Davisson (1780-1857)
Z:Public Domain
Z:Courtesy of the Cyber Hymnal™
%%score ( 1 2 ) ( 3 4 )
L:1/8
M:4/4
K:C
V:1 treble 
V:2 treble 
V:3 bass 
V:4 bass 
V:1
 (A3 G) | E2 [EA]2 A4 | ([GB]2 [FA]2) [E^G]2 [FA]2 | [EB]4 [EB]4 | [Fc]2 [EB]2 [CA]4 | %5
 [DA]4 [Ec]2 [Fd]2 | !fermata![Ee]4 [ce]4 | ([ce][Bd]) [Ac]2 [GB]4 | ([Cc]2 [EA]2) G2 [FA]2 | %9
 [EB]4 B3 [Ac] | [^Gd]2 [Ac]2 [Gd]4 | ([Ee]3 [Fc]) [EB]2 [EB]2 | !fermata![EA]4 |] %13
V:2
 E4 | E2 A4 x2 | x8 | x8 | x8 | x8 | x8 | x8 | x4 G2 x2 | x4 B3 x | x8 | x8 | x4 |] %13
V:3
 A,4 | [G,B,]2 [F,C]2 [E,A,]4 | G,2 A,2 B,2 [A,C]2 | [E,B,]4 [E,B,]4 | [C,A,]2 [E,B,]2 [A,C]4 | %5
 [D,E]4 [C,C]2 [A,,A,]2 | [A,,A,]4 A,4 | [E,A,]2 ([C,C][D,D]) [E,E]4 | ([A,E]2 C2) B,2 A,2 | %9
 [E,G,]4 [E,G,]4 | [D,^G,]2 A,2 [D,B,]4 | ([C,C]3 [D,A,]) [E,G,]2 [E,^G,]2 | !fermata![A,,A,]4 |] %13
V:4
 A,4 | x8 | (G,2 A,2) B,2 x2 | x8 | x8 | x8 | x4 A,4 | x8 | x2 C2 B,2 A,2 | x8 | x2 (E,C,) x4 | %11
 x8 | x4 |] %13

